img/why-we/icon-tablet.svg

<svg width="46" height="46" viewBox="0 0 46 46" fill="none" xmlns="http://www.w3.org/2000/svg">
<path d="M45.8264 37.7352L37.4295 22.1747C38.2861 20.2264 38.7653 18.0739 38.7653 15.8078C38.7653 7.07714 31.7028 0 22.9902 0C14.2761 0 7.21364 7.07858 7.21364 15.8078C7.21364 18.1285 7.71728 20.3299 8.61122 22.3127L0.176958 37.728C-0.0956703 38.2241 -0.049754 38.8351 0.290314 39.2866C0.630382 39.7381 1.20577 39.9495 1.75677 39.8201L8.95846 38.1651L11.4236 45.0453C11.6159 45.5801 12.1037 45.9511 12.6676 45.9928C12.7035 45.9957 12.7394 45.9971 12.7738 45.9971C13.299 45.9971 13.7869 45.7081 14.038 45.2394L21.3788 31.5366C21.9083 31.5912 22.4464 31.6185 22.9902 31.6185C23.4881 31.6185 23.9803 31.5926 24.4667 31.5466L31.9669 45.2523C32.2208 45.7167 32.7044 46 33.2253 46C33.2626 46 33.2999 45.9986 33.3372 45.9957C33.8997 45.9497 34.3846 45.5801 34.5755 45.0481L37.0406 38.168L44.2437 39.823C44.7962 39.9567 45.3658 39.741 45.7073 39.2924C46.0488 38.8438 46.0947 38.2356 45.8279 37.7381L45.8264 37.7352ZM13.0364 41.0322L11.2313 35.9925C10.9845 35.3066 10.2685 34.9084 9.55968 35.0766L4.23338 36.3016L10.3044 25.2042C12.3032 27.9117 15.1443 29.9535 18.4402 30.9471L13.0364 41.0322ZM10.0963 15.8078C10.0963 8.68323 15.8818 2.88722 22.9902 2.88722C30.0986 2.88722 35.8827 8.68323 35.8827 15.8078C35.8827 22.9324 30.0986 28.7284 22.9888 28.7284C15.8789 28.7284 10.0963 22.931 10.0963 15.8078ZM36.4408 35.0766C35.7291 34.9084 35.016 35.3066 34.7692 35.9911L32.9512 41.0667L27.4283 30.9772C30.8103 29.9837 33.7217 27.8887 35.7463 25.1036L41.793 36.306L36.4408 35.0766Z" fill="#FBD8D5"/>
</svg>

<svg width="46" height="46" fill="none" xmlns="http://www.w3.org/2000/svg"><path d="M45.826 37.735l-8.397-15.56a15.778 15.778 0 001.336-6.367C38.765 7.078 31.703 0 22.99 0 14.276 0 7.214 7.079 7.214 15.808c0 2.32.503 4.522 1.397 6.505L.177 37.728a1.44 1.44 0 00.113 1.559c.34.451.916.663 1.467.533l7.201-1.655 2.466 6.88a1.436 1.436 0 001.35.952c.525 0 1.013-.289 1.264-.758l7.34-13.702a15.715 15.715 0 003.089.01l7.5 13.705a1.434 1.434 0 002.608-.204l2.466-6.88 7.203 1.655a1.42 1.42 0 001.463-.53 1.442 1.442 0 00.12-1.555v-.003zm-32.79 3.297l-1.805-5.04a1.43 1.43 0 00-1.671-.915l-5.327 1.225 6.071-11.098a15.79 15.79 0 008.136 5.743l-5.404 10.085zm-2.94-25.224c0-7.125 5.786-12.92 12.894-12.92 7.109 0 12.893 5.795 12.893 12.92 0 7.124-5.784 12.92-12.894 12.92s-12.893-5.797-12.893-12.92zm26.345 19.269a1.428 1.428 0 00-1.672.914l-1.818 5.076-5.523-10.09a15.806 15.806 0 008.318-5.873l6.047 11.202-5.352-1.23z" fill="#FBD8D5"/></svg>
